T: Miss Sarah MacManus
M: 4/4
L: 1/8
K: Fmaj
FG|Acc=B cAFG|Acc=B c3 d|BddB dBFB|defd edcB|!Acc=B cAFG|Acc=B c3 d|B3 c defd|cAGA F2:|!|:AB|cA (3AAA fA (3AAA|fAgA aA (3AAA|BG (3GGG dG (3GGG|gGfG ecAB|!cA (3AAA fA (3AAA|fAgA aA (3AAA|Bcde fdcB|AFGE F2:|
